svg_80x80/apache-spark.svg

<svg viewBox="0 0 80 80" xmlns="http://www.w3.org/2000/svg">
<rect width="100%" height="100%" fill="#34668C"/>
<path fill-rule="evenodd" clip-rule="evenodd" d="M69.7117 36.2514C69.6503 36.1249 69.6217 36.0602 69.5878 35.9996C68.6878 34.3613 67.7899 32.7209 66.8825 31.0868C66.7904 30.9234 66.8021 30.8257 66.927 30.6859C68.3585 29.0847 69.7826 27.4772 71.2089 25.8708C71.2586 25.8153 71.3042 25.7547 71.3232 25.655C70.9061 25.7588 70.4889 25.8616 70.0728 25.9674C68.3426 26.4063 66.6125 26.8441 64.8845 27.2881C64.7236 27.3292 64.6505 27.285 64.5701 27.1566C63.5885 25.5861 62.6006 24.0187 61.6138 22.4514C61.563 22.3692 61.5079 22.29 61.3999 22.2222C61.3205 22.6405 61.239 23.0588 61.1617 23.4771L60.339 27.9109C60.3094 28.0713 60.2681 28.2296 60.2543 28.3909C60.2395 28.543 60.159 28.5996 60.0139 28.6427C57.9757 29.2553 55.9396 29.874 53.9024 30.4927C53.8135 30.5194 53.7256 30.5544 53.6303 30.6376L58.6534 32.5493C58.5919 32.5956 58.5517 32.6315 58.5072 32.6603C57.4654 33.3057 56.4214 33.9481 55.3837 34.5966C55.2588 34.6737 55.1603 34.685 55.0205 34.6244C53.7764 34.0889 52.527 33.5627 51.2818 33.0293C50.7217 32.7898 50.2188 32.4722 49.827 32.0138C48.9408 30.9758 49.1155 29.7959 50.2961 29.0744C50.6825 28.838 51.1219 28.6622 51.5582 28.5256C53.5551 27.9027 55.5595 27.3025 57.5617 26.6992C57.7301 26.6488 57.8084 26.5769 57.8391 26.4032C58.1059 24.9232 58.3834 23.4463 58.6608 21.9683C58.8101 21.179 58.8895 20.3681 59.2908 19.6456C59.4454 19.366 59.6296 19.0936 59.8498 18.8603C60.6439 18.0155 61.7547 17.9826 62.5954 18.7884C62.8791 19.0597 63.1226 19.3804 63.3344 19.7082C64.2598 21.1543 65.1715 22.6097 66.0768 24.066C66.1848 24.2397 66.2811 24.2736 66.4791 24.2233C68.7132 23.6498 70.9495 23.0855 73.1847 22.5202C73.6463 22.4031 74.1122 22.3609 74.5855 22.4452C75.6168 22.6302 76.0678 23.3805 75.7184 24.3343C75.5596 24.768 75.2854 25.1359 74.9772 25.4813C73.4176 27.2388 71.8601 28.9963 70.2951 30.7486C70.167 30.8925 70.1638 30.9953 70.2528 31.1556C71.1866 32.8412 72.1121 34.5298 73.0417 36.2174C73.2641 36.6214 73.4335 37.0397 73.4388 37.5042C73.4494 38.5597 72.6447 39.4231 71.5488 39.5762C70.9347 39.6626 70.365 39.5372 69.7911 39.3676C68.3903 38.9524 66.9874 38.5454 65.5834 38.1414C65.4531 38.1034 65.4034 38.0551 65.3811 37.9205C65.2191 36.9749 65.0434 36.0314 64.8729 35.0869C64.8687 35.0612 64.8761 35.0334 64.8803 34.9749L69.7117 36.2514Z" fill="#E25A1C"/>
<path fill-rule="evenodd" clip-rule="evenodd" d="M66.982 50.0256C65.7188 50.0235 64.4557 50.0173 63.1914 50.0225C63.0252 50.0225 62.9309 49.9762 62.8378 49.8406C61.3427 47.6596 59.8413 45.4838 58.3399 43.307C58.2922 43.2371 58.2414 43.1703 58.1556 43.0541L57.2006 50.0091H53.8928C53.932 49.7008 53.9659 49.4027 54.0061 49.1047C54.3291 46.7449 54.6531 44.3831 54.9781 42.0233C55.2873 39.7673 55.5954 37.5113 55.9099 35.2554C55.9194 35.1886 55.966 35.1033 56.0232 35.0673C57.1614 34.3581 58.3039 33.6531 59.4453 32.948C59.4622 32.9377 59.4855 32.9367 59.5448 32.9203L58.5135 40.4477L58.5538 40.4744L63.9675 34.7291L64.1115 35.5226C64.2396 36.24 64.3625 36.9574 64.5001 37.6727C64.5277 37.8166 64.4885 37.907 64.3879 38.0067C63.2295 39.1681 62.0744 40.3326 60.9192 41.4971L60.7635 41.6605C60.8006 41.717 60.8313 41.7715 60.8694 41.8218L66.8486 49.8529C66.8846 49.9022 66.9365 49.9403 66.982 49.9834V50.0256ZM27.7759 43.0644C27.7251 42.8178 27.6891 42.4549 27.5747 42.1168C27.0209 40.4806 25.2665 39.5833 23.4516 39.9883C21.4611 40.4313 20.038 41.9308 19.8326 43.8753C19.6801 45.3142 20.4891 46.7007 21.9936 47.2208C23.206 47.6401 24.3728 47.4643 25.456 46.8425C26.8939 46.0172 27.6732 44.7921 27.7759 43.0644ZM19.0321 49.1458C18.9336 49.8498 18.8394 50.5127 18.7484 51.1777C18.6276 52.0595 18.5069 52.9424 18.3905 53.8252C18.3767 53.928 18.3439 53.9743 18.2285 53.9732C17.32 53.9702 16.4115 53.9702 15.5031 53.9691C15.4819 53.9691 15.4618 53.9589 15.4131 53.9455C15.4671 53.5282 15.5211 53.1109 15.5782 52.6937C15.7794 51.2291 15.9785 49.7655 16.1818 48.302C16.4147 46.6288 16.5989 44.9473 16.8965 43.2844C17.4248 40.3408 20.0327 37.8032 23.0948 37.1711C24.8694 36.8053 26.5678 36.9748 28.1168 37.9317C29.6627 38.8844 30.5489 40.2678 30.7512 42.0089C31.0371 44.4694 30.0905 46.5126 28.2651 48.2023C27.0665 49.3123 25.6318 50.0173 23.9768 50.2558C22.2721 50.5014 20.6691 50.2291 19.2312 49.2671C19.1782 49.2321 19.1221 49.2013 19.0321 49.1458ZM17.5508 35.1567L14.5639 37.2852C14.4051 37.0458 14.2621 36.8063 14.0959 36.5833C13.6681 36.0108 13.1366 35.5832 12.3626 35.5308C11.7199 35.4876 11.1704 35.6911 10.732 36.1444C10.3402 36.5504 10.2894 37.128 10.6558 37.5864C11.0581 38.09 11.4986 38.5689 11.9486 39.0366C12.6951 39.8105 13.4754 40.5556 14.2166 41.3347C14.8911 42.0428 15.4279 42.8373 15.5941 43.8054C15.7921 44.9566 15.5518 46.0532 14.9832 47.0645C13.9307 48.9371 12.2726 50.0245 10.0851 50.3637C9.11835 50.5138 8.15482 50.4839 7.21141 50.2178C5.95988 49.8652 5.09059 49.081 4.52941 47.971C4.33141 47.5805 4.18 47.1653 4 46.7449L7.24 45.085C7.27706 45.1714 7.30353 45.2433 7.33847 45.3111C7.52271 45.6637 7.67412 46.0378 7.90176 46.3626C8.57835 47.3256 9.67 47.6185 10.7796 47.1437C11.0634 47.0203 11.3376 46.8477 11.5716 46.6503C12.2864 46.0429 12.4198 45.1981 11.8914 44.4344C11.5875 43.9956 11.2074 43.6019 10.8379 43.2083C9.95377 42.2689 9.03365 41.3583 8.16965 40.4025C7.57565 39.7426 7.17118 38.9739 7.04306 38.09C6.90329 37.1259 7.10447 36.2163 7.62859 35.4044C8.93094 33.3869 10.8262 32.3365 13.3304 32.4238C14.7576 32.4732 15.8948 33.1124 16.7779 34.1741C17.0384 34.4886 17.284 34.8155 17.5508 35.1567ZM41.7449 45.9905C41.5798 47.2064 41.4231 48.3616 41.26 49.5158C41.2515 49.5744 41.2039 49.6535 41.152 49.6771C38.686 50.7697 35.4396 50.6176 33.4152 48.4161C32.3267 47.2341 31.8704 45.8302 31.9392 44.2679C32.0969 40.6533 35.2268 37.498 38.9708 37.0571C41.1584 36.7991 43.0769 37.3654 44.5582 38.9913C45.5673 40.0993 46.0342 41.4231 45.9654 42.8835C45.9199 43.8476 45.7621 44.8086 45.6372 45.7685C45.4593 47.1283 45.2645 48.487 45.0771 49.8457C45.0707 49.894 45.0601 49.9423 45.0495 50.0029H42.0997C42.1388 49.6905 42.1748 49.3853 42.2161 49.08C42.43 47.5106 42.6651 45.9432 42.8514 44.3707C42.9679 43.3923 42.8948 42.42 42.4279 41.5135C41.9302 40.5484 41.0948 40.0386 39.9979 39.9276C37.7267 39.6974 35.5656 41.2083 35.0818 43.3481C34.762 44.7603 35.266 46.1138 36.4413 46.8631C37.5859 47.5928 38.8131 47.5949 40.0604 47.1211C40.6935 46.8816 41.2325 46.5023 41.7449 45.9905ZM54.1649 37.3315L53.7626 40.2586C53.1379 40.2586 52.5269 40.2555 51.916 40.2606C51.4205 40.2637 50.9684 40.57 50.8191 41.013C50.7608 41.1856 50.7396 41.3717 50.7142 41.5536C50.404 43.8013 50.0969 46.0491 49.7888 48.2979C49.7105 48.8642 49.6353 49.4315 49.5569 50.0071H46.4874C46.5446 49.5754 46.5986 49.1561 46.6568 48.7388C46.8559 47.2814 47.0549 45.825 47.2572 44.3687C47.4319 43.1086 47.5875 41.8455 47.794 40.5895C48.0693 38.906 49.8185 37.4106 51.5931 37.3376C52.4401 37.3017 53.2893 37.3315 54.1649 37.3315Z" fill="white"/>
<path d="M70.6001 50.0071V48.7666H70.5937L70.0855 50.0071H69.9224L69.4142 48.7666H69.4068V50.0061H69.1505V48.5199H69.5455L70.0092 49.6494L70.4645 48.5199H70.8563V50.0071H70.6001ZM68.3479 48.7193V50.0071H68.0917V48.7193H67.6046V48.5209H68.8329V48.7193H68.3479ZM21.6633 33.0693H22.4257L22.2457 31.9665L21.6633 33.0693ZM22.5443 33.7826H21.2779L20.8756 34.537H19.9788L21.9566 30.9983H22.8217L23.4951 34.537H22.6639L22.5443 33.7826ZM27.075 31.7116H26.6239L26.4725 32.5277H26.9225C27.1946 32.5277 27.4128 32.3571 27.4128 32.0343C27.4128 31.8206 27.2751 31.7116 27.075 31.7116ZM25.9823 30.9983H27.1682C27.7876 30.9983 28.2217 31.3529 28.2217 31.9614C28.2217 32.726 27.6563 33.2409 26.8526 33.2409H26.3412L26.1019 34.5359H25.3311L25.9823 30.9983ZM30.8433 33.0693H31.6046L31.4246 31.9665L30.8433 33.0693ZM31.7232 33.7826H30.4579L30.0556 34.537H29.1588L31.1366 30.9983H32.0006L32.6751 34.537H31.8429L31.7232 33.7826ZM36.7304 34.4116C36.4699 34.5257 36.1819 34.5945 35.8939 34.5945C34.9156 34.5945 34.3004 33.8915 34.3004 33.0117C34.3004 31.8884 35.2904 30.9408 36.4646 30.9408C36.7579 30.9408 37.0237 31.0086 37.2408 31.1227L37.1328 31.9716C36.9697 31.8 36.7092 31.6797 36.3821 31.6797C35.7086 31.6797 35.1115 32.2635 35.1115 32.9388C35.1115 33.4547 35.4482 33.8556 35.9797 33.8556C36.3069 33.8556 36.6214 33.7353 36.8331 33.5688L36.7304 34.4116ZM41.4464 33.1114H39.8381L39.5765 34.537H38.8057L39.4569 30.9983H40.2288L39.9683 32.3982H41.5766L41.8371 30.9983H42.609L41.9578 34.537H41.1859L41.4464 33.1114ZM44.2766 34.537L44.9289 30.9983H46.9777L46.8475 31.7116H45.5695L45.4403 32.3982H46.6135L46.4832 33.1114H45.309L45.1788 33.8237H46.4557L46.3255 34.537H44.2766Z" fill="white"/>
</svg>

<svg xmlns="http://www.w3.org/2000/svg" viewBox="0 0 80 80">
  <rect width="100%" height="100%" fill="#34668C"/>
  <path fill="#E25A1C" fill-rule="evenodd" d="M69.71 36.25 69.6 36l-2.7-4.91c-.1-.17-.09-.26.04-.4l4.28-4.82c.05-.05.1-.12.11-.21l-1.25.3-5.19 1.33c-.16.04-.23 0-.31-.13l-2.96-4.7a.64.64 0 0 0-.21-.24l-.24 1.26-.82 4.43-.09.48c-.01.15-.1.21-.24.25l-6.1 1.85a.68.68 0 0 0-.28.15l5.02 1.9c-.06.06-.1.1-.14.12l-3.13 1.94c-.12.07-.22.09-.36.02l-3.74-1.6a3.86 3.86 0 0 1-1.45-1c-.89-1.04-.71-2.22.47-2.95.38-.23.82-.4 1.26-.54 2-.63 4-1.23 6-1.83.17-.05.25-.12.28-.3l.82-4.43c.15-.8.23-1.6.63-2.32.16-.28.34-.56.56-.79.8-.84 1.9-.88 2.75-.07.28.27.52.59.73.92.93 1.44 1.84 2.9 2.75 4.36.1.17.2.2.4.15l6.7-1.7c.47-.12.93-.16 1.4-.07 1.04.18 1.49.93 1.14 1.88-.16.44-.43.8-.74 1.15l-4.68 5.27c-.13.14-.14.25-.05.4l2.8 5.07c.21.4.38.82.39 1.28a2.1 2.1 0 0 1-1.9 2.08 4.08 4.08 0 0 1-1.75-.21l-4.2-1.23c-.14-.04-.19-.08-.2-.22l-.52-2.83.01-.12 4.83 1.28Z" clip-rule="evenodd"/>
  <path fill="#fff" fill-rule="evenodd" d="M66.98 50.03H63.2c-.16 0-.26-.05-.35-.19l-4.5-6.53-.18-.26-.96 6.96h-3.3l.1-.9.98-7.09.93-6.76a.3.3 0 0 1 .11-.2l3.43-2.11.1-.03-1.04 7.53.04.02 5.42-5.74.14.8c.13.71.25 1.43.39 2.14.03.15-.01.24-.11.34l-3.47 3.49-.16.16.1.16 5.99 8.03c.03.05.09.09.13.13v.05Zm-39.2-6.97c-.05-.24-.1-.6-.2-.94-.56-1.64-2.31-2.54-4.13-2.13a4.47 4.47 0 0 0-3.62 3.89A3.15 3.15 0 0 0 22 47.22c1.22.42 2.38.24 3.47-.38a4.37 4.37 0 0 0 2.32-3.78Zm-8.75 6.09c-.1.7-.2 1.36-.28 2.03l-.36 2.65c-.01.1-.05.14-.16.14H15.5l-.09-.02.17-1.26.6-4.39c.23-1.67.42-3.35.72-5.02.52-2.94 3.13-5.48 6.2-6.1a6.66 6.66 0 0 1 5.02.75 5.34 5.34 0 0 1 2.63 4.08c.29 2.46-.66 4.5-2.48 6.2a7.85 7.85 0 0 1-4.3 2.05c-1.7.24-3.3-.03-4.74-1l-.2-.11Zm-1.48-14-2.99 2.14c-.15-.24-.3-.48-.46-.7-.43-.58-.96-1-1.74-1.06-.64-.04-1.19.16-1.63.61-.39.41-.44.99-.07 1.45.4.5.84.98 1.29 1.45.75.77 1.53 1.52 2.27 2.3.67.7 1.2 1.5 1.37 2.47a4.85 4.85 0 0 1-.6 3.25 6.46 6.46 0 0 1-4.9 3.3 6.7 6.7 0 0 1-2.88-.14 4.18 4.18 0 0 1-2.68-2.25c-.2-.39-.35-.8-.53-1.23l3.24-1.66.1.23c.18.35.33.73.56 1.05a2.26 2.26 0 0 0 2.88.78c.28-.12.56-.3.8-.49.7-.6.84-1.45.31-2.22-.3-.43-.68-.83-1.05-1.22-.89-.94-1.8-1.85-2.67-2.8-.6-.67-1-1.44-1.13-2.32-.14-.96.06-1.87.59-2.69a6.15 6.15 0 0 1 5.7-2.98c1.43.05 2.56.7 3.45 1.75l.77.99ZM41.75 46l-.49 3.53c0 .05-.06.13-.1.16-2.47 1.09-5.72.94-7.74-1.26a5.53 5.53 0 0 1-1.48-4.15c.16-3.62 3.29-6.77 7.03-7.21 2.19-.26 4.1.3 5.59 1.93 1 1.1 1.47 2.43 1.4 3.9-.04.96-.2 1.92-.32 2.88l-.56 4.08-.03.15H42.1l.12-.92c.21-1.57.45-3.14.63-4.7.12-.99.04-1.96-.42-2.87A2.89 2.89 0 0 0 40 39.93a4.59 4.59 0 0 0-4.92 3.42 3.2 3.2 0 0 0 1.36 3.51c1.15.73 2.37.73 3.62.26A4.73 4.73 0 0 0 41.74 46Zm12.41-8.66-.4 2.93h-1.84c-.5 0-.95.31-1.1.75-.06.18-.08.36-.1.54l-.93 6.75-.23 1.7h-3.07a1953.68 1953.68 0 0 1 .77-5.64c.17-1.25.33-2.51.53-3.77a4.2 4.2 0 0 1 3.8-3.25c.85-.04 1.7 0 2.57 0Z" clip-rule="evenodd"/>
  <path fill="#fff" d="M70.6 50v-1.23L70.08 50h-.17l-.5-1.24h-.01V50h-.26v-1.49h.4l.46 1.13.45-1.13h.4v1.49h-.26Zm-2.25-1.28V50h-.26v-1.3h-.49v-.19h1.23v.2h-.48ZM21.66 33.07h.77l-.18-1.1-.59 1.1Zm.88.71h-1.26l-.4.76h-.9L21.96 31h.86l.68 3.54h-.84l-.12-.76Zm4.54-2.07h-.46l-.15.82h.45c.27 0 .5-.17.5-.5 0-.2-.14-.32-.35-.32Zm-1.1-.71h1.19c.62 0 1.05.35 1.05.96 0 .77-.56 1.28-1.37 1.28h-.5l-.25 1.3h-.77l.65-3.54Zm4.86 2.07h.76l-.18-1.1-.58 1.1Zm.88.71h-1.26l-.4.76h-.9L31.14 31H32l.68 3.54h-.84l-.12-.76Zm5.01.63a2.1 2.1 0 0 1-.84.18c-.97 0-1.59-.7-1.59-1.58 0-1.12.99-2.07 2.16-2.07.3 0 .56.07.78.18l-.1.85c-.17-.17-.43-.29-.76-.29a1.3 1.3 0 0 0-1.27 1.26c0 .51.34.92.87.92.33 0 .64-.12.85-.3l-.1.85Zm4.72-1.3h-1.61l-.26 1.43h-.77l.65-3.54h.77l-.26 1.4h1.6l.27-1.4h.77l-.65 3.54h-.77l.26-1.43Zm2.83 1.43.65-3.54h2.05l-.13.71h-1.28l-.13.69h1.17l-.13.71h-1.17l-.13.71h1.28l-.13.72h-2.05Z"/>
</svg>
